X: 4
T: COCK 'O THE NORTH
S: "COUNTRY DANCES OF TODAY 2", CDSS, May Gadd ed., 1951 p.12
N: Yes, the apostrophe is in the wrong place in the title.
R: ji
Z: 2010 John Chambers <jc:trillian.mit.edu>
M: 6/8
L: 1/8
K: G
"A"[|] d/c/ |\
"G"BcB BAG | GBd e2d | BcB "(C)"BAG | "D"A3- A2d/c/ | "G"BcB BAG |
GBd e2d | "(D)"BcB "D7"A2d | "G"G3- G2 "B":: d | "G"g2d e2d | g2d e2d |
BcB BAG | "D"A3- A2d | "G"g2d e2d | g2d e2d | "G"BcB "D7"A2d | "G"G3- G2 :|


%%sep 5 1 500

%%sep 1 1 500

